X:1
T:Zion, Founded on the Mountain
T:Tune: Walter G. Whinfield, 1865-1919 Text and harmonization under copyright; for copyrighted material see Psalter Hymnal 168
T:87 87 47 WORCESTER www.hymnary.org/text/zion_founded_on_the_mountains
T:Zion, Founded on the Mountain
T:This music is in the public domain. You may freely use this score for personal and congregational worship. If you reproduce the score, please credit Hymnary.org as the source. 
T:This music is in the public domain. You may freely use this score for personal and congregational worship. If you reproduce the score, please credit Hymnary.org as the source. 
Z:This music is in the public domain. You may freely use this score for personal and congregational worship. If you reproduce the score, please credit Hymnary.org as the source.
L:1/8
M:4/4
K:Bb
V:1 treble nm="SOPRANO ALTO" snm="S. A."
V:1
 B,2 D2 F2 B2 | d2 cB B2 A2 | B2 AG | F2 ED | C2 DE D4 | B,2 D2 F2 B2 | d2 cB B2 A2 | B2 AG F2 A2 | %8
 G2 F=E F4 |1 F2 B2 A2 G2 | F2 d2 c2 B2 | B4 A4 | B8 |] %13

